images/cro.svg

<svg height="250" viewBox="0 0 250 250" width="250" xmlns="http://www.w3.org/2000/svg" xmlns:xlink="http://www.w3.org/1999/xlink"><linearGradient id="a"><stop offset="0" stop-color="#25376c"/><stop offset="1" stop-color="#1f1f49"/></linearGradient><linearGradient id="b" gradientTransform="matrix(3.164622 0 0 -2.741071 -2393.693858 4659.683603)" gradientUnits="userSpaceOnUse" x1="795.891907" x2="795.891907" xlink:href="#a" y1="1699.947632" y2="1608.747681"/><linearGradient id="c" gradientTransform="matrix(3.164622 0 0 -2.741071 -2393.693858 4659.683603)" gradientUnits="userSpaceOnUse" x1="776.141907" x2="776.141907" xlink:href="#a" y1="1608.747681" y2="1699.947632"/><path d="m125.003906.0078125-125.003906 62.4921875v125l125.003906 62.492188 125.007813-62.492188v-125zm0 0" fill="url(#b)"/><path d="m125.003906.0078125-125.003906 62.4921875v125l125.003906 62.492188zm0 0" fill="url(#c)"/><g fill="#fff"><path d="m173.734375 54.011719h-98.101563l-11.394531 43.300781h121.523438zm-80.699219 102.789062v-28.777343l-29.109375-15.90625-32.914062 21.109374 44.933593 67.707032h18.046876l21.199218-17.269532v-8.503906zm0 0"/><path d="m156.652344 103.898438h-63.292969l10.449219 24.125-3.160156 27.140624h48.738281l-3.160157-27.140624zm0 0"/><path d="m185.761719 111.839844-28.796875 16.171875v28.78125l-21.832032 18.359375v8.5l21.195313 16.992187h17.726563l44.621093-67.429687zm0 0"/></g></svg>

<!-- Generator: Adobe Illustrator 26.0.1, SVG Export Plug-In . SVG Version: 6.00 Build 0)  -->
<svg xmlns="http://www.w3.org/2000/svg" xmlns:xlink="http://www.w3.org/1999/xlink" width="250px" height="250px" viewBox="0 0 250 250" version="1.1">
<defs>
<linearGradient id="linear0" gradientUnits="userSpaceOnUse" x1="795.891907" y1="1699.947632" x2="795.891907" y2="1608.747681" gradientTransform="matrix(3.164622,0,0,-2.741071,-2393.693858,4659.683603)">
<stop offset="0" style="stop-color:rgb(14.509805%,21.568628%,42.352942%);stop-opacity:1;"/>
<stop offset="1" style="stop-color:rgb(12.156863%,12.156863%,28.627452%);stop-opacity:1;"/>
</linearGradient>
<linearGradient id="linear1" gradientUnits="userSpaceOnUse" x1="776.141907" y1="1608.747681" x2="776.141907" y2="1699.947632" gradientTransform="matrix(3.164622,0,0,-2.741071,-2393.693858,4659.683603)">
<stop offset="0" style="stop-color:rgb(14.509805%,21.568628%,42.352942%);stop-opacity:1;"/>
<stop offset="1" style="stop-color:rgb(12.156863%,12.156863%,28.627452%);stop-opacity:1;"/>
</linearGradient>
</defs>
<g id="surface1">
<path style=" stroke:none;fill-rule:nonzero;fill:url(#linear0);" d="M 125.003906 0.0078125 L 0 62.5 L 0 187.5 L 125.003906 249.992188 L 250.011719 187.5 L 250.011719 62.5 Z M 125.003906 0.0078125 "/>
<path style=" stroke:none;fill-rule:nonzero;fill:url(#linear1);" d="M 125.003906 0.0078125 L 0 62.5 L 0 187.5 L 125.003906 249.992188 Z M 125.003906 0.0078125 "/>
<path style=" stroke:none;fill-rule:nonzero;fill:rgb(100%,100%,100%);fill-opacity:1;" d="M 173.734375 54.011719 L 75.632812 54.011719 L 64.238281 97.3125 L 185.761719 97.3125 Z M 93.035156 156.800781 L 93.035156 128.023438 L 63.925781 112.117188 L 31.011719 133.226562 L 75.945312 200.933594 L 93.992188 200.933594 L 115.191406 183.664062 L 115.191406 175.160156 Z M 93.035156 156.800781 "/>
<path style=" stroke:none;fill-rule:nonzero;fill:rgb(100%,100%,100%);fill-opacity:1;" d="M 156.652344 103.898438 L 93.359375 103.898438 L 103.808594 128.023438 L 100.648438 155.164062 L 149.386719 155.164062 L 146.226562 128.023438 Z M 156.652344 103.898438 "/>
<path style=" stroke:none;fill-rule:nonzero;fill:rgb(100%,100%,100%);fill-opacity:1;" d="M 185.761719 111.839844 L 156.964844 128.011719 L 156.964844 156.792969 L 135.132812 175.152344 L 135.132812 183.652344 L 156.328125 200.644531 L 174.054688 200.644531 L 218.675781 133.214844 Z M 185.761719 111.839844 "/>
</g>
</svg>
